svg/math_sin.svg

<svg xmlns="http://www.w3.org/2000/svg" viewBox="0 0 24 24"><path d="M4 7a2 2 0 0 0-2 2v2a2 2 0 0 0 2 2h2v2H2v2h4a2 2 0 0 0 2-2v-2a2 2 0 0 0-2-2H4V9h4V7zm10 0v2h-1v6h1v2h-4v-2h1V9h-1V7zm2 0v10h2v-5l2 5h2V7h-2v5l-2-5z"/></svg>

<?xml version="1.0" encoding="UTF-8"?><!DOCTYPE svg PUBLIC "-//W3C//DTD SVG 1.1//EN" "http://www.w3.org/Graphics/SVG/1.1/DTD/svg11.dtd"><svg xmlns="http://www.w3.org/2000/svg" xmlns:xlink="http://www.w3.org/1999/xlink" version="1.1" id="mdi-math-sin" width="24" height="24" viewBox="0 0 24 24"><path d="M4,7A2,2 0 0,0 2,9V11A2,2 0 0,0 4,13H6V15H2V17H6A2,2 0 0,0 8,15V13A2,2 0 0,0 6,11H4V9H8V7H4M14,7V9H13V15H14V17H10V15H11V9H10V7H14M16,7V17H18V12L20,17H22V7H20V12L18,7H16Z" /></svg>
